DE/EBO/Lf6_50_Tafel_nu.svg

<?xml version="1.0" encoding="UTF-8" standalone="no"?>
<svg width="457px" height="390px" viewBox="0 0 457 390" version="1.1" xmlns="http://www.w3.org/2000/svg" xmlns:xlink="http://www.w3.org/1999/xlink" xmlns:sketch="http://www.bohemiancoding.com/sketch/ns">
    <title>Slice 1</title>
    <description>Created with Sketch (http://www.bohemiancoding.com/sketch)</description>
    <defs></defs>
    <g id="Page-1" stroke="none" stroke-width="1" fill="none" fill-rule="evenodd" sketch:type="MSPage">
        <g id="Lf6_150_Tafel_nu" sketch:type="MSLayerGroup" transform="translate(9.000000, 5.000000)">
            <g id="layer5" transform="translate(0.000000, 0.390010)" sketch:type="MSShapeGroup">
                <path d="M-0.5,-0.32 L219.5,375.17999 L439.5,-0.32 L-0.5,-0.32 Z" id="path4624" stroke="#000000" stroke-width="9" fill="#FFFFFF"></path>
                <path d="M32.201488,18.73635 L219.5,338.42084 L406.79851,18.73635 L32.201488,18.73635 Z" id="path3780" fill="#D97100"></path>
            </g>
            <g id="layer6" transform="translate(184.500000, 43.390010)" fill="#000000" sketch:type="MSShapeGroup">
                <g id="text4403" transform="translate(-0.363137, -0.144257)">
                    <path d="M71.4874419,99.6942229 L71.4874419,146.324254 C71.6998416,165.246597 55.8487599,181.938243 35.904982,181.938243 C15.0933952,181.938243 0.262440194,165.000188 0.262440194,146.324254 L0.262440194,135.655397 L22.6074434,135.655397 L22.6074434,146.324254 C22.6074434,153.92146 28.7271843,159.610605 35.7549391,159.600024 C43.3463377,159.588594 49.1645024,153.564622 49.1645024,146.324254 L49.1645024,100.465197 C49.1645024,92.7429406 42.7414201,87.2369917 35.8586973,87.2369917 C30.4499856,87.2369917 24.6874116,90.4111032 22.6074434,96.7199904 L0.351195049,96.7199904 L0.351195049,0.463008534 L71.4874419,0.463008534 L71.4874419,22.7594857 L22.6074434,22.7594857 L22.6074434,72.9261304 C28.6740746,67.5185491 35.0590602,65.8223999 43.2702523,65.8223999 C61.9789933,65.8223999 71.4874419,82.6212689 71.4874419,99.6942229 L71.4874419,99.6942229 Z" id="path4426"></path>
                </g>
            </g>
        </g>
    </g>
</svg>

<?xml version="1.0" encoding="UTF-8" standalone="no"?>
<!-- Created with Inkscape (http://www.inkscape.org/) -->

<svg
   xmlns:sketch="http://www.bohemiancoding.com/sketch/ns"
   xmlns:dc="http://purl.org/dc/elements/1.1/"
   xmlns:cc="http://creativecommons.org/ns#"
   xmlns:rdf="http://www.w3.org/1999/02/22-rdf-syntax-ns#"
   xmlns:svg="http://www.w3.org/2000/svg"
   xmlns="http://www.w3.org/2000/svg"
   xmlns:sodipodi="http://sodipodi.sourceforge.net/DTD/sodipodi-0.dtd"
   xmlns:inkscape="http://www.inkscape.org/namespaces/inkscape"
   width="449.35999"
   height="384.07001"
   id="svg2"
   version="1.1"
   inkscape:version="0.48.5 r10040"
   sodipodi:docname="Lf6_20_Tafel_nu.svg">
  <defs
     id="defs4" />
  <sodipodi:namedview
     id="base"
     pagecolor="#ffffff"
     bordercolor="#666666"
     borderopacity="1.0"
     inkscape:pageopacity="0.0"
     inkscape:pageshadow="2"
     inkscape:zoom="1.4"
     inkscape:cx="327.12612"
     inkscape:cy="249.63495"
     inkscape:document-units="px"
     inkscape:current-layer="layer6"
     showgrid="false"
     inkscape:window-width="1920"
     inkscape:window-height="1028"
     inkscape:window-x="1366"
     inkscape:window-y="30"
     inkscape:window-maximized="1" />
  <metadata
     id="metadata7">
    <rdf:RDF>
      <cc:Work
         rdf:about="">
        <dc:format>image/svg+xml</dc:format>
        <dc:type
           rdf:resource="http://purl.org/dc/dcmitype/StillImage" />
        <dc:title></dc:title>
      </cc:Work>
    </rdf:RDF>
  </metadata>
  <g
     inkscape:label="Ebene 1"
     inkscape:groupmode="layer"
     id="layer1"
     transform="translate(0,-668.2922)"
     style="display:inline" />
  <g
     inkscape:groupmode="layer"
     id="layer4"
     inkscape:label="orange-weiss"
     transform="translate(0,209.39001)">
    <path
       style="color:#000000;fill:#d97100;fill-opacity:1;stroke:#ffffff;stroke-width:15;stroke-linecap:round;stroke-linejoin:round;stroke-miterlimit:4;stroke-opacity:1;stroke-dasharray:none;stroke-dashoffset:0;marker:none;visibility:visible;display:inline;overflow:visible;enable-background:accumulate"
       d="m 432.3545,-196.12211 c -142.257,0.2431 -281.4368,-0.8006 -415.1475,-1.1875 66.0146,116.334203 139.1155,237.711803 205.1301,354.046 68.2981,-116.165297 141.8641,-236.459897 210.1622,-352.6252 -2.1381,3.7034 -7.2936,-0.2333 -0.1448,-0.2333 z"
       id="path3047"
       inkscape:connector-curvature="0"
       sodipodi:nodetypes="ccccc" />
  </g>
  <g
     inkscape:groupmode="layer"
     id="layer5"
     inkscape:label="schwarz"
     transform="translate(0,209.39001)">
    <path
       sodipodi:nodetypes="ccccc"
       inkscape:connector-curvature="0"
       id="path4624"
       d="m 441.5343,-203.03571 c -170.4274,0 -300.3326,-0.5962 -437.0343,-1.8584 66.0146,116.334203 151.3149,258.739903 217.3295,375.0741 68.2981,-116.165297 223.0279,-373.1969 223.0279,-373.1969 z"
       style="color:#000000;fill:none;stroke:#000000;stroke-width:9;stroke-linecap:round;stroke-linejoin:round;stroke-miterlimit:4;stroke-opacity:1;stroke-dasharray:none;stroke-dashoffset:0;marker:none;visibility:visible;display:inline;overflow:visible;enable-background:accumulate" />
  </g>
  <g
     inkscape:groupmode="layer"
     id="layer6"
     inkscape:label="Ziffer"
     transform="translate(0,209.39001)">
    <g
       id="layer6-4"
       transform="translate(193.5,-166.92999)"
       sketch:type="MSShapeGroup"
       style="fill:#000000;stroke:none">
      <g
         id="text4403"
         transform="translate(-0.363137,-0.144257)">
        <path
           d="m 71.487442,99.694223 0,46.630027 c 0.2124,18.92235 -15.638682,35.61399 -35.58246,35.61399 -20.811587,0 -35.64254181,-16.93805 -35.64254181,-35.61399 l 0,-10.66885 22.34500281,0 0,10.66885 c 0,7.59721 6.119741,13.28635 13.147496,13.27577 7.591399,-0.0114 13.409563,-6.0354 13.409563,-13.27577 l 0,-45.85905 c 0,-7.722259 -6.423082,-13.228208 -13.305805,-13.228208 -5.408711,0 -11.171285,3.174111 -13.251254,9.482998 l -22.25624795,0 0,-96.25698147 71.13624695,0 0,22.29647747 -48.879999,0 0,50.166644 c 6.066632,-5.407581 12.451617,-7.10373 20.662809,-7.10373 18.708741,0 28.21719,16.798869 28.21719,33.871823 l 0,0 z"
           id="path4426"
           inkscape:connector-curvature="0" />
      </g>
    </g>
  </g>
</svg>
